raw-svg/face-smile.svg

<svg fill="none" height="24" viewBox="0 0 24 24" width="24" xmlns="http://www.w3.org/2000/svg"><path clip-rule="evenodd" d="m4.50006 12c0-4.14214 3.35787-7.5 7.50004-7.5 4.1421 0 7.5 3.35786 7.5 7.5 0 4.1421-3.3579 7.5-7.5 7.5-4.14217 0-7.50004-3.3579-7.50004-7.5zm7.50004-9c-4.9706 0-9.00004 4.02944-9.00004 9 0 4.9706 4.02944 9 9.00004 9 4.9705 0 9-4.0294 9-9 0-4.97056-4.0295-9-9-9zm-2.75004 7.5c.69036 0 1.25004-.55964 1.25004-1.25s-.55968-1.25-1.25004-1.25c-.69035 0-1.25.55964-1.25 1.25s.55965 1.25 1.25 1.25zm6.75004-1.25c0 .69036-.5597 1.25-1.25 1.25-.6904 0-1.25-.55964-1.25-1.25s.5596-1.25 1.25-1.25c.6903 0 1.25.55964 1.25 1.25zm-7.30159 4.476-.00366-.0084-.00011-.0003c-.15532-.3818-.59003-.5669-.97322-.4137-.38459.1539-.57165.5904-.41782.9749l.69636-.2785c-.69636.2785-.69621.2789-.69606.2793l.00032.0008.00071.0017.00171.0042.00464.0112c.00362.0087.00833.0197.01416.0329.01165.0265.02779.0619.04872.105.04179.086.10296.2033.18581.3414.16505.2751.42.6392.78466 1.0038.73863.7387 1.92117 1.4697 3.65537 1.4697 1.7341 0 2.9167-.731 3.6553-1.4697.3646-.3646.6196-.7287.7847-1.0038.0828-.1381.144-.2554.1858-.3414.0209-.0431.037-.0785.0487-.105.0058-.0132.0105-.0242.0141-.0329l.0047-.0112.0017-.0042.0007-.0017.0003-.0008c.0002-.0004.0003-.0008-.696-.2793l.6963.2785c.1539-.3845-.0332-.821-.4178-.9749-.3832-.1532-.8179.0319-.9732.4137l-.0038.0087c-.0045.0102-.0127.0285-.025.0537-.0246.0507-.065.1288-.1228.2251-.1162.1936-.2987.4545-.5591.7149-.5113.5113-1.3288 1.0303-2.5946 1.0303-1.2659 0-2.08333-.519-2.59471-1.0303-.26034-.2604-.44289-.5213-.55908-.7149-.05779-.0963-.09818-.1744-.12279-.2251-.01228-.0252-.02055-.0435-.02501-.0537z" fill="#000" fill-rule="evenodd"/></svg>

<svg width="24" height="24" viewBox="0 0 24 24" fill="none" xmlns="http://www.w3.org/2000/svg">
<path fill-rule="evenodd" clip-rule="evenodd" d="M4.50006 12C4.50006 7.85786 7.85793 4.5 12.0001 4.5C16.1422 4.5 19.5001 7.85786 19.5001 12C19.5001 16.1421 16.1422 19.5 12.0001 19.5C7.85793 19.5 4.50006 16.1421 4.50006 12ZM12.0001 3C7.0295 3 3.00006 7.02944 3.00006 12C3.00006 16.9706 7.0295 21 12.0001 21C16.9706 21 21.0001 16.9706 21.0001 12C21.0001 7.02944 16.9706 3 12.0001 3ZM9.25006 10.5C9.94042 10.5 10.5001 9.94036 10.5001 9.25C10.5001 8.55964 9.94042 8 9.25006 8C8.55971 8 8.00006 8.55964 8.00006 9.25C8.00006 9.94036 8.55971 10.5 9.25006 10.5ZM16.0001 9.25C16.0001 9.94036 15.4404 10.5 14.7501 10.5C14.0597 10.5 13.5001 9.94036 13.5001 9.25C13.5001 8.55964 14.0597 8 14.7501 8C15.4404 8 16.0001 8.55964 16.0001 9.25ZM8.69851 13.726L8.69485 13.7176L8.69474 13.7173C8.53942 13.3355 8.10471 13.1504 7.72152 13.3036C7.33693 13.4575 7.14987 13.894 7.3037 14.2785L8.00006 14C7.3037 14.2785 7.30385 14.2789 7.304 14.2793L7.30432 14.2801L7.30503 14.2818L7.30674 14.286L7.31138 14.2972C7.315 14.3059 7.31971 14.3169 7.32554 14.3301C7.33719 14.3566 7.35333 14.392 7.37426 14.4351C7.41605 14.5211 7.47722 14.6384 7.56007 14.7765C7.72512 15.0516 7.98007 15.4157 8.34473 15.7803C9.08336 16.519 10.2659 17.25 12.0001 17.25C13.7342 17.25 14.9168 16.519 15.6554 15.7803C16.02 15.4157 16.275 15.0516 16.4401 14.7765C16.5229 14.6384 16.5841 14.5211 16.6259 14.4351C16.6468 14.392 16.6629 14.3566 16.6746 14.3301C16.6804 14.3169 16.6851 14.3059 16.6887 14.2972L16.6934 14.286L16.6951 14.2818L16.6958 14.2801L16.6961 14.2793C16.6963 14.2789 16.6964 14.2785 16.0001 14L16.6964 14.2785C16.8503 13.894 16.6632 13.4575 16.2786 13.3036C15.8954 13.1504 15.4607 13.3355 15.3054 13.7173L15.3016 13.726C15.2971 13.7362 15.2889 13.7545 15.2766 13.7797C15.252 13.8304 15.2116 13.9085 15.1538 14.0048C15.0376 14.1984 14.8551 14.4593 14.5947 14.7197C14.0834 15.231 13.2659 15.75 12.0001 15.75C10.7342 15.75 9.91677 15.231 9.40539 14.7197C9.14505 14.4593 8.9625 14.1984 8.84631 14.0048C8.78852 13.9085 8.74813 13.8304 8.72352 13.7797C8.71124 13.7545 8.70297 13.7362 8.69851 13.726Z" fill="black"/>
</svg>
